X:0745
T:Miss Campbell of Monizie's Strathspey.
M:C
L:1/8
Q:1/4=120
I: :: ||
Z:Jack Campin * www.campin.me.uk * 2009
K:D
d|A<AA>F A2 d>e|{de}f2    ed  eEEA  |FAAd   B2 b>a|f>ae>f dDD:|
f|a>ba>f g>ag>e|    fg/a/ df  eAAd  |B<BB>A B2 b>a|f>ae>f dDDf|
  a>ba>f g>ag>e|    f/g/a d<f e>AA>d|B>AB>c B>ba>g|f<ae<f dDD|]

